T: Three Flowers, The
M: 4/4
L: 1/8
K: Dmaj
|: FG |A2 A2 F2 d2 | c2 c2 E3 F | G2 E2 D2 C2 | D6 FG |
A2 A2 B2 cd | e2 e2 f3 e | d2 B2 AB cA | d2 d>d d2 FG |
A2 A2 B2 cd | e2 e2 f3 e | d2 B2 AB cA | d2 d>d d2 FG |
A2 A2 F2 d2 | c2 c2 E3 F | G2 E2 D2 C2 | D6 :|
